packages/foundations/assets/icons/functional/images/file/folder_open_14.svg

<svg width="14" height="14" viewBox="0 0 14 14" fill="none" xmlns="http://www.w3.org/2000/svg">
<g clip-path="url(#clip0_185_951)">
<path fill-rule="evenodd" clip-rule="evenodd" d="M6.33739 2.79994C6.49592 2.79994 6.6485 2.79994 6.84162 3.01439C7.1115 3.29189 7.37963 3.5704 7.646 3.84994H10.4985C11.2366 3.84994 11.8985 4.44471 11.8985 5.24994C11.8997 5.59993 11.8997 5.94993 11.8985 6.29994C12.3126 6.29994 12.6833 6.66587 12.5849 7.13722C12.3906 8.11646 12.1948 9.09555 11.9975 10.0745C11.8738 10.6925 11.3107 11.1999 10.6246 11.1999C8.20727 11.2014 5.78984 11.2014 3.37237 11.1999C2.74209 11.1999 2.0985 10.7077 1.99955 10.0745C1.80236 9.09558 1.60654 8.11648 1.4121 7.13722C1.33088 6.73114 1.63709 6.29994 2.0985 6.29994C2.0985 5.62545 2.0985 4.92545 2.0985 4.19994C2.0985 3.46188 2.70678 2.79994 3.4985 2.79994C4.44476 2.7987 5.39106 2.7987 6.33739 2.79994ZM11.0445 7.69994H2.9518L3.37237 9.79994H10.6246L11.0445 7.69994ZM6.0402 4.19994H3.4985L3.49827 6.29994H10.4983L10.4985 5.24994H7.3485C7.18998 5.24994 6.99815 5.19345 6.84428 5.03549C6.57373 4.7572 6.30571 4.47869 6.0402 4.19994Z" fill="#1A1C1F"/>
</g>
<defs>
<clipPath id="clip0_185_951">
<rect width="14" height="14" fill="white"/>
</clipPath>
</defs>
</svg>

<svg xmlns="http://www.w3.org/2000/svg" width="14" height="14" fill="none"><g clip-path="url(#a)"><path fill="#1A1C1F" fill-rule="evenodd" d="M6.337 2.8c.159 0 .312 0 .505.214q.405.416.804.836h2.853c.738 0 1.4.595 1.4 1.4V6.3c.414 0 .784.366.686.837q-.291 1.47-.588 2.938a1.415 1.415 0 0 1-1.372 1.125H3.372c-.63 0-1.273-.492-1.372-1.125q-.296-1.47-.588-2.938A.704.704 0 0 1 2.1 6.3V4.2c0-.738.608-1.4 1.4-1.4zm4.708 4.9H2.951l.42 2.1h7.253zM6.04 4.2H3.5v2.1h7V5.25h-3.15a.7.7 0 0 1-.505-.215Q6.44 4.618 6.04 4.2" clip-rule="evenodd"/></g><defs><clipPath id="a"><path fill="#fff" d="M0 0h14v14H0z"/></clipPath></defs></svg>
